lib/logo_tmp/nrk-logo-nrk-folkemusikk-with-bg.svg

<svg width="171" height="28" viewBox="0 0 171 28" fill="none" xmlns="http://www.w3.org/2000/svg">
<rect width="170.667" height="28" fill="#7B0A02"/>
<path d="M6.66663 21V7.00123H11.26V21H6.66663ZM17.5094 9.2292L20.151 21H15.124L11.9697 7.00123H14.7892C15.4357 6.99284 16.063 7.22075 16.5535 7.64208C17.0449 8.04574 17.3824 8.60611 17.5094 9.2292ZM20.8411 21V7.00123H25.4345V21H20.8411ZM28.9038 12.3247C28.4089 12.3296 27.9218 12.2001 27.4946 11.9501C27.073 11.7064 26.7229 11.3562 26.4793 10.9347C26.229 10.5073 26.0995 10.0202 26.1044 9.525C26.0988 9.03283 26.2284 8.54857 26.4793 8.12512C26.7255 7.70811 27.0752 7.36174 27.4946 7.11957C27.922 6.86988 28.4089 6.74039 28.9038 6.74491C29.3959 6.73961 29.8799 6.86921 30.3035 7.11957C30.7187 7.36386 31.0647 7.70995 31.309 8.12512C31.5596 8.54869 31.6892 9.03287 31.6838 9.525C31.6884 10.0201 31.5589 10.5072 31.309 10.9347C31.0673 11.3544 30.7209 11.7043 30.3035 11.9501C29.8799 12.2009 29.3955 12.3306 28.9032 12.3247H28.9038ZM32.3935 21V7.00123H36.9873V21H32.3935ZM42.8027 14.6512C42.8156 14.6648 42.9141 14.8258 43.0983 15.1343C43.2826 15.4427 43.5224 15.8371 43.8179 16.3173C44.1136 16.7973 44.4257 17.3066 44.754 17.8453C45.0824 18.384 45.3913 18.8934 45.6809 19.3734C45.9694 19.8534 46.298 20.3955 46.6666 21H41.6198C41.3041 20.4873 41.0181 20.024 40.7618 19.61C40.5056 19.1959 40.2331 18.749 39.9444 18.2692C39.6551 17.7899 39.369 17.3233 39.0862 16.8693C38.8034 16.4154 38.5604 16.0178 38.3571 15.6765C38.153 15.335 38.0116 15.1049 37.9329 14.9864C37.7379 14.6923 37.6225 14.3526 37.5981 14.0006C37.6176 13.6627 37.7263 13.3361 37.9132 13.0539C37.992 12.9225 38.1366 12.6891 38.3469 12.3539C38.5572 12.0188 38.8036 11.6212 39.0862 11.1611C39.3688 10.7011 39.6549 10.2312 39.9444 9.7514C40.234 9.27163 40.5064 8.8214 40.7618 8.40078C41.0186 7.9806 41.3046 7.51398 41.6198 7.00091H46.6666L42.7629 13.3694C42.6421 13.5585 42.574 13.7764 42.5657 14.0006C42.5787 14.236 42.6609 14.4623 42.8019 14.6512H42.8027Z" fill="white"/>
<path d="M52 21.0018H54.0703V15.2247H59.3543L59.5713 13.5097H54.0703V8.73786H61.2275V7.00277H52V21.0018Z" fill="#FFC7BD"/>
<path d="M69.4396 11.3609C68.6181 10.9244 67.6979 10.707 66.7679 10.73C65.8293 10.7086 64.9015 10.9329 64.0763 11.3806C63.3147 11.807 62.692 12.4436 62.2824 13.2143C61.8371 14.079 61.6166 15.0418 61.6412 16.0141C61.6161 16.9787 61.8224 17.9354 62.2426 18.804C62.6202 19.5622 63.2227 20.1854 63.9678 20.5884C64.7698 21.0085 65.6652 21.2189 66.5704 21.1996C67.5181 21.2184 68.4548 20.9945 69.2916 20.5493C70.0726 20.1228 70.7131 19.4789 71.1352 18.6956C71.5932 17.8206 71.8206 16.8433 71.7957 15.856C71.8183 14.9158 71.6082 13.9845 71.1841 13.145C70.7913 12.3913 70.1843 11.7706 69.4396 11.3609ZM69.3209 17.966C69.0998 18.4786 68.7243 18.9094 68.2467 19.1983C67.7671 19.4732 67.222 19.613 66.6693 19.6028C66.1273 19.6164 65.593 19.4726 65.1311 19.1888C64.6743 18.8851 64.3175 18.4531 64.1058 17.947C63.8377 17.2976 63.7102 16.5987 63.7315 15.8965C63.7083 15.2131 63.8361 14.5331 64.1058 13.9047C64.327 13.4109 64.6956 12.9976 65.161 12.7217C65.6584 12.4479 66.2198 12.3118 66.7873 12.3274C67.2306 12.3163 67.671 12.4003 68.0791 12.5738C68.4364 12.735 68.748 12.9824 68.9861 13.2938C69.2402 13.6318 69.4244 14.0171 69.5279 14.4272C69.6513 14.907 69.7109 15.4011 69.7054 15.8965C69.7285 16.606 69.5974 17.3121 69.3209 17.966Z" fill="#FFC7BD"/>
<path d="M77.3456 19.5523C77.2769 19.5599 77.2078 19.5634 77.1386 19.5628C76.9902 19.567 76.8425 19.5401 76.7051 19.4836C76.5858 19.4301 76.4835 19.3448 76.4094 19.2371C76.3237 19.1094 76.2666 18.9647 76.2418 18.8129C76.2061 18.6113 76.1896 18.4067 76.1925 18.202V6.11584L74.1811 6.41165V19.0895C74.1727 19.4218 74.2263 19.7529 74.3391 20.0656C74.4335 20.3198 74.5892 20.5467 74.7926 20.7261C74.9948 20.8998 75.2343 21.0245 75.4926 21.0908C75.779 21.1652 76.074 21.2017 76.3699 21.1993C76.5277 21.1993 76.6786 21.1927 76.8235 21.1799C76.9684 21.167 77.1094 21.147 77.2474 21.1204C77.3854 21.0938 77.5 21.0678 77.5921 21.0419L77.7893 19.4839L77.5523 19.5233C77.4741 19.5365 77.4051 19.546 77.3456 19.5523Z" fill="#FFC7BD"/>
<path d="M88.3775 10.9461H85.9129L82.539 14.6529H81.8118V6.11584L79.8011 6.41165V21.0021H81.8118V16.1715H81.8447L85.8731 21.0021H88.4758L83.6932 15.6128L88.3775 10.9461Z" fill="#FFC7BD"/>
<path d="M97.1907 12.2179C96.8122 11.7273 96.3128 11.3435 95.7414 11.1039C95.1066 10.8448 94.4258 10.7173 93.7402 10.7292C93.0496 10.7176 92.3642 10.8519 91.7291 11.1236C91.1514 11.3765 90.6365 11.7535 90.2208 12.2277C89.7924 12.7259 89.4702 13.3062 89.274 13.9332C89.0493 14.6508 88.9396 15.3995 88.949 16.1514C88.9211 17.1014 89.1204 18.0444 89.5303 18.9019C89.9051 19.645 90.5104 20.2467 91.2556 20.6173C92.13 21.0291 93.0895 21.2284 94.0557 21.1989C94.5204 21.2028 94.9849 21.1731 95.4454 21.1102C95.8305 21.0548 96.2099 20.9657 96.5794 20.844C96.9457 20.721 97.3017 20.5693 97.6441 20.3905L97.7821 18.8723C97.5321 18.9643 97.2791 19.0564 97.0228 19.1484C96.7664 19.2404 96.5003 19.3225 96.2245 19.3948C95.9461 19.4677 95.6628 19.5203 95.3767 19.5522C95.0887 19.5854 94.799 19.602 94.5091 19.6018C93.9914 19.6102 93.4747 19.5539 92.9709 19.4342C92.5647 19.3369 92.1888 19.1404 91.8769 18.8624C91.562 18.5623 91.3309 18.1851 91.2066 17.7681C91.0777 17.3459 91.0055 16.9084 90.9917 16.4672H98.117C98.2141 15.6515 98.1776 14.8255 98.0086 14.0216C97.8699 13.3682 97.5908 12.7527 97.1907 12.2179ZM92.222 12.6914C92.6845 12.4102 93.2188 12.2696 93.7599 12.2869C94.3014 12.2598 94.8363 12.4161 95.2781 12.7305C95.6707 13.0439 95.9508 13.4764 96.0763 13.9628C96.175 14.3225 96.2234 14.694 96.2202 15.0669H91.035C91.0716 14.6738 91.1555 14.2865 91.2851 13.9135C91.4536 13.4137 91.7831 12.9839 92.222 12.6914Z" fill="#FFC7BD"/>
<path d="M114.206 11.1433C113.668 10.8513 113.063 10.7084 112.451 10.7293C111.92 10.7277 111.394 10.8178 110.894 10.9955C110.386 11.1774 109.907 11.4332 109.474 11.7546C109.229 11.9366 108.995 12.1341 108.775 12.346C108.572 11.8524 108.216 11.4374 107.759 11.1631C107.214 10.8696 106.602 10.7266 105.984 10.749C105.457 10.7492 104.933 10.8392 104.436 11.0152C103.926 11.1947 103.444 11.447 103.006 11.7644C102.865 11.8666 102.728 11.9773 102.592 12.093V10.75L100.581 11.0458V21.0027H102.592V13.5035C102.829 13.3483 103.076 13.2089 103.332 13.0864C103.645 12.9387 103.972 12.8231 104.308 12.7414C104.618 12.665 104.935 12.6252 105.254 12.6231C105.547 12.6142 105.839 12.6647 106.112 12.7713C106.338 12.8669 106.538 13.0155 106.694 13.2047C106.865 13.4246 106.983 13.681 107.039 13.954C107.116 14.3069 107.152 14.6674 107.147 15.0285V21.0027H109.158V14.6142C109.16 14.237 109.134 13.8602 109.082 13.4867C109.31 13.3369 109.546 13.1999 109.789 13.0763C110.097 12.9216 110.421 12.8025 110.755 12.7213C111.071 12.644 111.396 12.6042 111.722 12.603C112.011 12.5958 112.299 12.6462 112.569 12.7509C112.799 12.8446 113.003 12.9937 113.161 13.185C113.332 13.4045 113.45 13.6609 113.506 13.9339C113.583 14.2867 113.619 14.6471 113.614 15.0082V21.0024H115.626V14.5944C115.651 13.8486 115.53 13.1052 115.271 12.4056C115.066 11.878 114.691 11.4337 114.206 11.1433Z" fill="#FFC7BD"/>
<path d="M125.247 18.5477C125.098 18.638 124.952 18.7222 124.803 18.7935C124.569 18.9081 124.329 19.0102 124.084 19.0994C123.85 19.184 123.609 19.25 123.364 19.2966C123.114 19.3434 122.86 19.3665 122.605 19.3656C122.188 19.3815 121.774 19.29 121.403 19.0997C121.083 18.9183 120.836 18.6328 120.703 18.291C120.54 17.8668 120.463 17.4146 120.476 16.9604V10.7497L118.464 11.0454V17.315C118.44 18.0633 118.571 18.8084 118.849 19.5036C119.078 20.052 119.488 20.5047 120.012 20.7852C120.596 21.0763 121.243 21.2187 121.895 21.1996C122.307 21.2024 122.718 21.1527 123.118 21.0517C123.499 20.9531 123.867 20.8074 124.212 20.6179C124.568 20.4226 124.904 20.1948 125.217 19.9374C125.275 19.8904 125.332 19.8352 125.39 19.7856L125.681 21.0014H127.238L127.258 10.7487L125.247 11.0444V18.5477Z" fill="#FFC7BD"/>
<path d="M136.564 16.4672C136.363 16.2529 136.13 16.0701 135.874 15.9247C135.609 15.7731 135.332 15.6445 135.046 15.5402C134.836 15.4745 134.629 15.4055 134.425 15.3332C134.221 15.2609 134.017 15.1951 133.813 15.136C133.61 15.0768 133.412 15.0145 133.222 14.9487C133.043 14.888 132.869 14.8155 132.7 14.7318C132.537 14.6457 132.382 14.5468 132.236 14.4361C132.101 14.3343 131.987 14.207 131.901 14.0615C131.814 13.912 131.77 13.7415 131.773 13.5686C131.767 13.3785 131.815 13.1906 131.911 13.0263C132.014 12.8649 132.156 12.7326 132.325 12.6419C132.531 12.5287 132.754 12.4488 132.986 12.4049C133.275 12.3497 133.569 12.3234 133.863 12.3264C134.007 12.3264 134.165 12.3332 134.336 12.3461C134.507 12.3589 134.694 12.3826 134.898 12.4154C135.102 12.4483 135.305 12.491 135.509 12.5429C135.713 12.5949 135.92 12.655 136.13 12.7207C136.325 12.7807 136.516 12.8532 136.702 12.9379L136.84 11.3406C136.59 11.2356 136.344 11.1435 136.101 11.0642C135.858 10.9857 135.611 10.9198 135.361 10.867C135.118 10.8154 134.871 10.7793 134.622 10.7586C134.379 10.7389 134.139 10.729 133.902 10.729C133.358 10.7234 132.815 10.7863 132.286 10.9163C131.833 11.0264 131.403 11.2131 131.014 11.4684C130.661 11.7018 130.373 12.0206 130.176 12.3951C129.97 12.8078 129.868 13.2648 129.88 13.726C129.874 14.0581 129.927 14.3886 130.038 14.7019C130.131 14.9649 130.272 15.2087 130.452 15.4216C130.627 15.6228 130.83 15.7987 131.053 15.9441C131.286 16.097 131.534 16.2258 131.793 16.3286C131.937 16.3814 132.088 16.4338 132.246 16.486C132.404 16.5381 132.559 16.5876 132.71 16.6345C132.86 16.6805 133.008 16.7264 133.153 16.7722C133.297 16.8185 133.439 16.8642 133.577 16.9102C133.715 16.9562 133.85 16.9989 133.981 17.0383C134.158 17.1008 134.329 17.1766 134.494 17.2651C134.639 17.3416 134.774 17.4342 134.898 17.5411C135.007 17.6365 135.094 17.7541 135.154 17.8862C135.215 18.0226 135.245 18.1704 135.243 18.3196C135.25 18.4655 135.224 18.6112 135.168 18.746C135.112 18.8808 135.026 19.0014 134.918 19.0991C134.674 19.3028 134.382 19.4418 134.07 19.503C133.704 19.5837 133.331 19.6234 132.956 19.6213C132.722 19.6198 132.488 19.6033 132.256 19.5719C132 19.5391 131.73 19.4931 131.448 19.434C131.165 19.3748 130.876 19.3025 130.58 19.2171C130.284 19.1317 129.986 19.0364 129.683 18.9315L129.762 20.6074C130.103 20.7258 130.416 20.821 130.698 20.8933C130.981 20.9656 131.251 21.0281 131.507 21.0806C131.754 21.1318 132.004 21.1648 132.256 21.1792C132.499 21.1922 132.745 21.1986 132.995 21.1986C133.545 21.2015 134.094 21.1451 134.632 21.0307C135.105 20.9346 135.559 20.7581 135.973 20.5085C136.345 20.2808 136.654 19.9618 136.87 19.5818C137.095 19.1648 137.208 18.6957 137.195 18.2217C137.203 17.8758 137.146 17.5313 137.027 17.2063C136.922 16.9326 136.764 16.6817 136.564 16.4672Z" fill="#FFC7BD"/>
<path d="M141.305 6.61831C141.1 6.49323 140.865 6.42829 140.625 6.43098C140.382 6.42915 140.143 6.49395 139.935 6.61831C139.729 6.73889 139.557 6.90817 139.432 7.11123C139.307 7.31585 139.242 7.55164 139.245 7.79149C139.243 8.03435 139.308 8.27305 139.432 8.48153C139.553 8.68784 139.726 8.85807 139.935 8.97445C140.145 9.09267 140.383 9.15385 140.625 9.15191C140.863 9.15468 141.098 9.09338 141.305 8.97445C141.508 8.85721 141.675 8.68678 141.788 8.48153C141.906 8.27089 141.968 8.03305 141.966 7.79149C141.968 7.55296 141.907 7.31805 141.788 7.11123C141.671 6.90909 141.505 6.73961 141.305 6.61831Z" fill="#FFC7BD"/>
<path d="M139.581 21.0017H141.592V10.749L139.581 11.0447V21.0017Z" fill="#FFC7BD"/>
<path d="M153.245 10.9461H150.78L147.406 14.6529H146.679V6.11584L144.668 6.41165V21.0021H146.679V16.1715H146.712L150.74 21.0021H153.343L148.56 15.6128L153.245 10.9461Z" fill="#FFC7BD"/>
<path d="M161.092 21.0017H163.695L158.912 15.6125L163.596 10.9461H161.131L157.757 14.6529H157.03V6.11584L155.019 6.41165V21.0021H157.03V16.1715H157.063L161.092 21.0017Z" fill="#FFC7BD"/>
</svg>

<svg xmlns="http://www.w3.org/2000/svg" viewBox="0 0 171 28"><path fill="#7B0A02" d="M0 0h170.667v28H0z"/><path fill="#fff" d="M6.667 21V7.001h4.593V21H6.667ZM17.509 9.23 20.151 21h-5.027L11.97 7.001h2.82a2.655 2.655 0 0 1 1.764.641c.49.404.828.964.955 1.587ZM20.841 21V7.001h4.593V21h-4.593Zm8.063-8.675a2.779 2.779 0 0 1-2.425-1.39 2.736 2.736 0 0 1-.375-1.41 2.686 2.686 0 0 1 .375-1.4 2.812 2.812 0 0 1 3.825-1.005c.415.244.76.59 1.005 1.005.25.424.38.908.375 1.4.004.495-.125.982-.375 1.41a2.8 2.8 0 0 1-1.006 1.015c-.423.25-.908.38-1.4.375ZM32.394 21V7.001h4.593V21h-4.593Zm10.409-6.349c.013.014.111.175.295.483.185.309.424.703.72 1.183a373.133 373.133 0 0 1 1.863 3.056c.288.48.617 1.022.986 1.627H41.62l-.858-1.39a127.3 127.3 0 0 1-.818-1.34c-.289-.48-.575-.947-.858-1.4a71.148 71.148 0 0 1-.729-1.194 20.758 20.758 0 0 0-.424-.69 2.04 2.04 0 0 1-.335-.985c.02-.338.128-.665.315-.947.079-.132.224-.365.434-.7a206.222 206.222 0 0 0 1.598-2.602c.289-.48.561-.93.817-1.351L41.62 7h5.047l-3.904 6.368c-.12.19-.189.407-.197.632.013.235.095.461.236.65Z"/><path fill="#FFC7BD" d="M52 21.002h2.07v-5.777h5.284l.217-1.715h-5.5V8.738h7.157V7.003H52v13.999ZM69.44 11.36a5.409 5.409 0 0 0-2.672-.63 5.387 5.387 0 0 0-2.692.65 4.547 4.547 0 0 0-1.794 1.834 5.795 5.795 0 0 0-.64 2.8 6.046 6.046 0 0 0 .6 2.79c.378.758.98 1.381 1.726 1.784.802.42 1.697.63 2.602.612a5.559 5.559 0 0 0 2.722-.65 4.597 4.597 0 0 0 1.843-1.854 5.808 5.808 0 0 0 .66-2.84 5.708 5.708 0 0 0-.61-2.711 4.31 4.31 0 0 0-1.745-1.784Zm-.12 6.606a2.681 2.681 0 0 1-1.073 1.232 3.058 3.058 0 0 1-1.578.405 2.804 2.804 0 0 1-1.538-.414 2.78 2.78 0 0 1-1.025-1.242 4.978 4.978 0 0 1-.374-2.05 4.65 4.65 0 0 1 .374-1.992 2.62 2.62 0 0 1 1.055-1.183 3.19 3.19 0 0 1 1.626-.395c.444-.01.884.073 1.292.247.357.161.669.408.907.72.254.338.438.723.542 1.133.123.48.183.974.177 1.47a4.904 4.904 0 0 1-.384 2.069ZM77.346 19.552a1.745 1.745 0 0 1-.207.01 1.06 1.06 0 0 1-.434-.078.713.713 0 0 1-.296-.247 1.071 1.071 0 0 1-.167-.424 3.24 3.24 0 0 1-.05-.611V6.116l-2.01.296V19.09c-.01.332.044.663.157.976.094.254.25.48.454.66.202.174.441.299.7.365.286.074.581.11.877.108.158 0 .309-.006.453-.02a4.343 4.343 0 0 0 .769-.138l.197-1.557-.237.04a3.413 3.413 0 0 1-.206.028ZM88.377 10.946h-2.464l-3.374 3.707h-.727V6.116l-2.01.296v14.59h2.01v-4.83h.033l4.028 4.83h2.603l-4.783-5.39 4.684-4.666ZM97.19 12.218a3.578 3.578 0 0 0-1.449-1.114 5.063 5.063 0 0 0-2-.375 4.904 4.904 0 0 0-2.012.395 4.298 4.298 0 0 0-1.508 1.104 4.827 4.827 0 0 0-.947 1.705 7.125 7.125 0 0 0-.325 2.218c-.028.95.171 1.893.581 2.75.375.744.98 1.346 1.726 1.716a6.133 6.133 0 0 0 2.8.582 9.67 9.67 0 0 0 1.39-.089 6.653 6.653 0 0 0 1.133-.266 7.366 7.366 0 0 0 1.065-.454l.138-1.518c-.25.092-.503.184-.76.276a9.482 9.482 0 0 1-.797.247 5.949 5.949 0 0 1-.848.157 7.53 7.53 0 0 1-.868.05 6.218 6.218 0 0 1-1.538-.168 2.53 2.53 0 0 1-1.094-.572 2.497 2.497 0 0 1-.67-1.094 4.99 4.99 0 0 1-.215-1.3h7.125a7.55 7.55 0 0 0-.108-2.446 4.609 4.609 0 0 0-.818-1.804Zm-4.968.473a2.789 2.789 0 0 1 1.538-.404 2.41 2.41 0 0 1 1.518.443c.393.314.673.746.798 1.233.099.36.147.731.144 1.104h-5.185c.037-.393.12-.78.25-1.153.169-.5.498-.93.937-1.223ZM114.206 11.143a3.431 3.431 0 0 0-1.755-.414 4.605 4.605 0 0 0-1.557.267 5.486 5.486 0 0 0-1.42.759c-.245.182-.479.38-.699.591a2.478 2.478 0 0 0-1.016-1.183 3.476 3.476 0 0 0-1.775-.414c-.527 0-1.051.09-1.548.266a5.614 5.614 0 0 0-1.844 1.078V10.75l-2.011.296v9.957h2.011v-7.5c.237-.155.484-.294.74-.417.313-.147.64-.263.976-.345.31-.076.627-.116.946-.118.293-.009.585.042.858.148.226.096.426.244.582.434.171.22.289.476.345.749.077.353.113.713.108 1.074v5.975h2.011v-6.389a7.875 7.875 0 0 0-.076-1.127c.228-.15.464-.287.707-.41.308-.155.632-.274.966-.356.316-.077.641-.117.967-.118.289-.007.577.043.847.148.23.094.434.243.592.434.171.22.289.476.345.749.077.353.113.713.108 1.074v5.994h2.012v-6.408a5.75 5.75 0 0 0-.355-2.188 2.546 2.546 0 0 0-1.065-1.263ZM125.247 18.548c-.149.09-.295.174-.444.246a7.358 7.358 0 0 1-.719.305c-.234.085-.475.151-.72.198-.25.046-.504.07-.759.069a2.43 2.43 0 0 1-1.202-.266 1.594 1.594 0 0 1-.7-.809 3.435 3.435 0 0 1-.227-1.33V10.75l-2.012.295v6.27a5.426 5.426 0 0 0 .385 2.189 2.58 2.58 0 0 0 1.163 1.281 3.962 3.962 0 0 0 1.883.415 4.86 4.86 0 0 0 1.223-.148 4.74 4.74 0 0 0 1.094-.434 6.515 6.515 0 0 0 1.005-.68c.058-.048.115-.103.173-.152l.291 1.215h1.557l.02-10.252-2.011.295v7.504ZM136.564 16.467a2.93 2.93 0 0 0-.69-.542 5.379 5.379 0 0 0-.828-.385c-.21-.065-.417-.134-.621-.207a10.97 10.97 0 0 0-.612-.197c-.203-.06-.401-.121-.591-.187a4.252 4.252 0 0 1-.522-.217 3.383 3.383 0 0 1-.464-.296 1.295 1.295 0 0 1-.335-.374.947.947 0 0 1-.128-.493c-.006-.19.042-.378.138-.543.103-.161.245-.293.414-.384.206-.113.429-.193.661-.237.289-.055.583-.082.877-.079a6.34 6.34 0 0 1 1.035.09c.204.032.407.075.611.127.204.052.411.112.621.178.195.06.386.132.572.217l.138-1.597a9.6 9.6 0 0 0-.739-.277 7.345 7.345 0 0 0-.74-.197 5.92 5.92 0 0 0-.739-.108 8.909 8.909 0 0 0-.72-.03 6.492 6.492 0 0 0-1.616.187c-.453.11-.883.297-1.272.552a2.513 2.513 0 0 0-.838.927c-.206.413-.308.87-.296 1.331-.006.332.047.663.158.976.093.263.234.507.414.72.175.2.378.377.601.522.233.153.481.282.74.385.144.052.295.105.453.157.158.052.313.102.464.148a55.471 55.471 0 0 1 .867.276c.138.046.273.089.404.128.177.063.348.139.513.227.145.077.28.17.404.276a1.017 1.017 0 0 1 .345.779.989.989 0 0 1-.325.78 1.892 1.892 0 0 1-.848.403c-.366.08-.739.12-1.114.118a5.483 5.483 0 0 1-.7-.05 10.388 10.388 0 0 1-.808-.137c-.283-.06-.572-.132-.868-.217a17.95 17.95 0 0 1-.897-.285l.079 1.675c.341.119.654.214.936.286.283.073.553.135.809.188.247.05.497.084.749.098.243.013.489.02.739.02a7.677 7.677 0 0 0 1.637-.168 4.229 4.229 0 0 0 1.341-.522c.372-.228.681-.547.897-.927a2.71 2.71 0 0 0 .325-1.36 2.767 2.767 0 0 0-.168-1.016 2.286 2.286 0 0 0-.463-.739ZM141.305 6.618a1.277 1.277 0 0 0-.68-.187 1.326 1.326 0 0 0-.69.187c-.206.12-.378.29-.503.493-.125.205-.19.44-.187.68-.002.243.063.482.187.69.121.207.294.377.503.493.21.119.448.18.69.178.238.003.473-.059.68-.178.203-.117.37-.287.483-.492.118-.211.18-.449.178-.69a1.341 1.341 0 0 0-.178-.68 1.392 1.392 0 0 0-.483-.494ZM139.581 21.002h2.011V10.749l-2.011.296v9.957ZM153.245 10.946h-2.465l-3.374 3.707h-.727V6.116l-2.011.296v14.59h2.011v-4.83h.033l4.028 4.83h2.603l-4.783-5.39 4.685-4.666ZM161.092 21.002h2.603l-4.783-5.39 4.684-4.666h-2.465l-3.374 3.707h-.727V6.116l-2.011.296v14.59h2.011v-4.83h.033l4.029 4.83Z"/></svg>
